src/assets/backend.svg

<svg xmlns="http://www.w3.org/2000/svg" width="64" height="52" fill="none" viewBox="0 0 64 52"><path fill="#2ECC82" d="M0.00512695 14.1946H63.2815V15.5301C63.2815 25.359 63.2815 35.1878 63.2815 45.0167C63.2815 49.0785 61.0916 51.3353 57.1244 51.3353C40.1139 51.3353 23.1043 51.3353 6.09548 51.3353C2.26677 51.3353 0.00759869 49.0508 0.00512695 45.2C0.00512695 35.2439 0.00512695 25.2862 0.00512695 15.3268V14.1946ZM20.3005 37.694C20.1423 39.4864 23.1109 42.8578 24.8831 42.9256C25.0063 42.9331 25.13 42.9255 25.2514 42.903C26.47 42.6369 27.3178 43.154 28.1384 44.0552C28.6529 44.5705 29.3148 44.9071 30.0293 45.0167C31.0893 45.1811 32.1677 45.1811 33.2277 45.0167C33.9731 44.8784 34.6614 44.5185 35.2051 43.9824C35.5546 43.588 35.9887 43.2806 36.4739 43.0838C36.959 42.8871 37.4823 42.8063 38.0031 42.8478C38.7051 42.8804 39.5108 42.5239 40.1189 42.1122C40.8258 41.6353 41.3548 40.8897 41.9826 40.2897C42.7958 39.5215 43.0306 38.6203 43.0306 37.4856C43.0436 36.6407 43.356 35.8288 43.9105 35.1987C45.2329 33.8532 45.7965 29.7513 44.6521 28.235C44.4815 28.0066 44.1577 27.8685 44.0465 27.6225C43.6559 26.8141 43.0429 25.9807 43.0256 25.1447C42.9886 23.3247 40.3883 19.9709 38.5765 19.755C38.3726 19.7286 38.166 19.7337 37.9635 19.7701C36.8018 19.991 35.9861 19.4914 35.1779 18.663C34.6253 18.1355 33.9312 17.7861 33.1832 17.6589C32.1663 17.4844 31.1277 17.4844 30.1108 17.6589C29.3303 17.8189 28.6089 18.1961 28.0272 18.7484C27.2337 19.5216 26.4551 19.8805 25.328 19.8303C24.5697 19.8415 23.831 20.0771 23.2023 20.5081C22.4954 20.9776 21.9665 21.7332 21.3386 22.3256C20.4859 23.1189 20.2264 24.0427 20.2486 25.2351C20.2222 26.0785 19.8915 26.8826 19.3193 27.4944C17.9919 28.8174 17.4753 32.9745 18.6395 34.4707C18.7947 34.666 18.9751 34.8391 19.1759 34.9853C20.1176 35.6656 20.3747 36.607 20.3005 37.694Z"/><path fill="#2ECC82" d="M63.2862 10.3264H0.0642251C0.0642251 8.44869 -0.103844 6.60358 0.103781 4.80366C0.43005 1.97198 2.78806 0.0641132 5.73437 0.0540718C12.9815 0.0314786 20.2286 0.0540718 27.4856 0.0540718C37.244 0.0540718 47.0124 0.164522 56.7634 0.00134885C60.9653 -0.0714514 63.6521 2.81044 63.3085 6.75169C63.1997 7.89892 63.2862 9.06875 63.2862 10.3264ZM15.7869 8.16L15.9698 7.84118C16.9585 7.91649 17.9126 7.82612 18.4094 6.81194C18.6306 6.42742 18.6997 5.97198 18.6029 5.53767C18.5061 5.10336 18.2505 4.72258 17.8879 4.47229C17.1266 3.85725 14.7315 3.915 14.0468 4.57271C13.3621 5.23042 13.0804 6.09398 13.6835 6.79939C14.1951 7.40941 15.0627 7.71818 15.7869 8.16ZM24.6605 3.84972C23.8769 4.15348 23.0785 4.28652 22.5125 4.72584C21.7339 5.33334 21.8303 6.56843 22.5372 7.27635C23.3727 8.11481 25.8345 8.1123 26.6576 7.27635C27.367 6.55337 27.451 5.35091 26.6576 4.72332C26.1311 4.29154 25.3797 4.14846 24.6506 3.84972H24.6605ZM7.30395 7.85123C9.05146 7.85123 9.98822 7.37677 9.99564 6.24962C9.94381 5.53958 9.63054 4.87541 9.11819 4.38944C8.46565 3.77441 5.99884 3.91248 5.54652 4.57271C5.17328 5.11494 4.88904 5.96846 5.02993 6.58099C5.28452 7.73073 6.3276 7.92152 7.29405 7.85123H7.30395Z"/><path fill="#2ECC82" d="M41.5772 31.1727C41.5346 31.4623 41.4626 31.7467 41.3621 32.0212C40.6527 33.3592 39.5503 34.6169 39.2958 36.0378C38.9547 37.9281 38.3639 38.7992 36.3717 39.0778C34.9801 39.2786 33.7492 40.4861 32.3823 41.0861C31.9374 41.2844 31.2428 41.1212 30.7386 40.9254C29.0084 40.2527 27.3474 39.4067 25.5999 38.8042C24.8015 38.5306 24.5024 38.2168 24.2478 37.3783C23.7026 35.6243 23.0027 33.9237 22.1568 32.2974C21.7613 31.5191 21.7736 31.1074 22.1938 30.3317C23.0546 28.7537 23.7442 27.0854 24.2503 25.3562C24.4975 24.465 24.7793 24.1362 25.6543 23.85C27.3809 23.2875 29.0571 22.5762 30.6644 21.7237C31.4233 21.3271 31.8682 21.3271 32.627 21.7237C34.2333 22.5779 35.9097 23.2885 37.6372 23.8475C38.5147 24.1261 38.7841 24.4525 39.0412 25.3537C39.5355 27.0733 40.3487 28.6975 41.0532 30.3518C41.2034 30.6407 41.3788 30.9154 41.5772 31.1727ZM31.6482 27.9092C30.9829 27.9192 30.3354 28.129 29.7874 28.5122C29.2393 28.8953 28.8153 29.4347 28.5687 30.0624C28.3221 30.69 28.264 31.3777 28.4017 32.0388C28.5395 32.6999 28.8669 33.3048 29.3427 33.7772C29.8185 34.2496 30.4213 34.5683 31.0752 34.6932C31.7291 34.818 32.4047 34.7435 33.017 34.4789C33.6292 34.2143 34.1506 33.7715 34.5153 33.2063C34.8801 32.6412 35.0719 31.979 35.0666 31.3032C35.0497 30.3954 34.6816 29.5309 34.0418 28.8966C33.4021 28.2624 32.5422 27.9095 31.6482 27.9143V27.9092Z"/></svg>

<svg xmlns="http://www.w3.org/2000/svg" width="64" height="52" fill="none"><path fill="#2ECC82" d="M.005 14.195h63.277v30.822c0 4.061-2.19 6.318-6.158 6.318H6.095c-3.828 0-6.087-2.284-6.09-6.135V14.195ZM20.3 37.694c-.158 1.792 2.81 5.164 4.583 5.232.123.007.247 0 .368-.023 1.219-.266 2.067.251 2.887 1.152a3.401 3.401 0 0 0 1.891.962c1.06.164 2.139.164 3.199 0a3.806 3.806 0 0 0 1.977-1.035c.35-.394.784-.701 1.269-.898a3.359 3.359 0 0 1 1.53-.236c.701.032 1.507-.324 2.115-.736.707-.477 1.236-1.222 1.864-1.822.813-.768 1.048-1.67 1.048-2.804a3.545 3.545 0 0 1 .88-2.287c1.322-1.346 1.886-5.448.741-6.964-.17-.228-.494-.366-.605-.613-.391-.808-1.004-1.641-1.021-2.477-.037-1.82-2.638-5.174-4.45-5.39a2.007 2.007 0 0 0-.612.015c-1.162.221-1.978-.279-2.786-1.107a3.816 3.816 0 0 0-1.995-1.004 9.081 9.081 0 0 0-3.072 0c-.78.16-1.502.537-2.084 1.09-.793.773-1.572 1.132-2.699 1.081a3.86 3.86 0 0 0-2.126.678c-.707.47-1.236 1.225-1.863 1.818-.853.793-1.113 1.717-1.09 2.91a3.467 3.467 0 0 1-.93 2.258c-1.327 1.323-1.844 5.48-.68 6.977.156.195.336.368.537.514.942.68 1.199 1.622 1.125 2.709Zm42.986-27.368H.064c0-1.877-.168-3.722.04-5.522C.43 1.972 2.788.064 5.734.054c7.248-.023 14.495 0 21.752 0 9.758 0 19.526.11 29.277-.053 4.202-.072 6.89 2.81 6.546 6.75-.11 1.148-.023 2.318-.023 3.575Zm-47.5-2.166.184-.319c.989.075 1.943-.015 2.44-1.03.22-.384.29-.839.193-1.273a1.758 1.758 0 0 0-.715-1.066c-.761-.615-3.157-.557-3.841.1-.685.658-.967 1.522-.364 2.227.512.61 1.38.92 2.104 1.361Zm8.874-4.31c-.783.303-1.582.437-2.148.876-.778.607-.682 1.842.025 2.55.836.839 3.297.836 4.12 0 .71-.723.794-1.925 0-2.553-.526-.431-1.277-.575-2.006-.873h.01Zm-17.356 4c1.747 0 2.684-.474 2.692-1.601a2.85 2.85 0 0 0-.878-1.86c-.652-.616-3.12-.478-3.571.183-.374.542-.658 1.395-.517 2.008.255 1.15 1.298 1.34 2.264 1.27h.01Z"/><path fill="#2ECC82" d="M41.577 31.173a4.28 4.28 0 0 1-.215.848c-.71 1.338-1.812 2.596-2.066 4.017-.341 1.89-.932 2.761-2.924 3.04-1.392.2-2.623 1.408-3.99 2.008-.445.198-1.14.035-1.643-.16-1.73-.673-3.392-1.52-5.14-2.122-.797-.273-1.097-.587-1.351-1.426a30.865 30.865 0 0 0-2.091-5.08c-.396-.779-.383-1.19.037-1.966a25.131 25.131 0 0 0 2.056-4.976c.247-.891.53-1.22 1.404-1.506a31.549 31.549 0 0 0 5.01-2.126c.76-.397 1.204-.397 1.963 0a30.994 30.994 0 0 0 5.01 2.123c.878.28 1.147.605 1.404 1.507.495 1.72 1.308 3.344 2.012 4.998.15.289.326.563.524.82Zm-9.929-3.264a3.33 3.33 0 0 0-1.86.603 3.412 3.412 0 0 0-1.22 1.55 3.472 3.472 0 0 0-.166 1.977c.137.66.465 1.266.94 1.738a3.352 3.352 0 0 0 1.733.916c.654.125 1.33.05 1.942-.214a3.382 3.382 0 0 0 1.498-1.273 3.46 3.46 0 0 0 .552-1.903 3.48 3.48 0 0 0-1.025-2.406 3.374 3.374 0 0 0-2.394-.983v-.005Z"/></svg>
